!!!!SEGMENT: pl-kk--kk-i-1--002-005_ruffo-vincenzo--missa-alma-redemptoris-mater-agnus-dei.krn
!!!cenid: 15xx:662
!!!COM: Ruffo, Vincenzo
!!!COM-rismid: pe30002765
!!!CDT: ~1508-1587
!!!CNT: Italian
!!!OPR: Missa Alma redemptoris mater
!!!OTL: Agnus Dei
!!!OMV: 005
!!!PDT:
!!!AGN:
!!!SMS-siglum: PL-Kk
!!!SMS-shelfmark: Kk.I.1
!!!SMS-shelfwork: 002-005 M
!!!SMS-variant:
!!!SMS-altvar:
!!!NIFC-rismid: 300257956
!!!URL-scan: http://repozytorium.nifc.pl/skany/pl-kk-nut--i-1
!!!ONB-nifc: UWAGA: Cantus (s. 2r-11v, skan 0004-0014), Altus (s. 1r-12r, skan 0193-0204), Tenor (s. 2r-12r, skan 0390-0400), Bassus (s. 2r-12r, skan 0563-0573). Części Mszy: 1. Kyrie, 2. Et in terra, 3. Patrem, 4. Sanctus, 5. Agnus Dei
**kern	**text	**kern	**text	**kern	**text	**kern	**text	**kern	**text	**kern	**text
*part6	*part6	*part5	*part5	*part4	*part4	*part3	*part3	*part2	*part2	*part1	*part1
*staff6	*staff6	*staff5	*staff5	*staff4	*staff4	*staff3	*staff3	*staff2	*staff2	*staff1	*staff1
*I"BASSVS	*	*I"Tenor secund(us)	*	*I"TENOR	*	*I"Altus secundus	*	*I"ALTVS	*	*I"CANTVS	*
*I'B	*	*I'T 2	*	*I'T	*	*I'A 2	*	*I'A	*	*I'S	*
*Ibass	*	*Itenor	*	*Itenor	*	*Ialto	*	*Ialto	*	*Isoprn	*
*ICvox	*	*ICvox	*	*ICvox	*	*ICvox	*	*ICvox	*	*ICvox	*
*clefF3	*	*clefC3	*	*clefC3	*	*clefC3	*	*clefC3	*	*clefC2	*
*k[b-]	*	*	*	*k[b-]	*	*	*	*k[b-]	*	*k[b-]	*
*F:	*	*	*	*F:	*	*	*	*F:	*	*F:	*
*M2/1	*	*	*	*M2/1	*	*	*	*M2/1	*	*M2/1	*
*met(C|)	*	*	*	*met(C|)	*	*	*	*met(C|)	*	*met(C|)	*
*all\right	*	*all\right	*	*all\right	*	*all\right	*	*all\right	*	*all\right	*
=1-	=1-	=1-	=1-	=1-	=1-	=1-	=1-	=1-	=1-	=1-	=1-
!LO:TX:a:t=P:problem:przy kluczu B- BB-	!	!	!	!	!	!	!	!LO:TX:t=P:problem:kreska pseudotaktowa	!	!	!
00r	.	0ryy	.	0F	A-	0ryy	.	00r	.	00r	.
=2-	=2-	=2-	=2-	=2-	=2-	=2-	=2-	=2-	=2-	=2-	=2-
!	!	!	!	!LO:TX:t=P:problem:kreska pseudotaktowa	!	!	!	!	!	!	!
.	.	0ryy	.	1A	-gnus	0ryy	.	.	.	.	.
.	.	.	.	1B-	de-	.	.	.	.	.	.
=3-	=3-	=3-	=3-	=3-	=3-	=3-	=3-	=3-	=3-	=3-	=3-
!	!	!	!	!LO:TX:t=P:problem:kreska pseudotaktowa	!	!	!	!	!	!	!
00r	.	0ryy	.	1c	-i	0ryy	.	0F	AG-	00r	.
.	.	.	.	2r	.	.	.	.	.	.	.
.	.	.	.	2c/	qui	.	.	.	.	.	.
=4-	=4-	=4-	=4-	=4-	=4-	=4-	=4-	=4-	=4-	=4-	=4-
!	!	!	!	!	!	!	!	!LO:TX:t=P:problem:kreska pseudotaktowa	!	!	!
.	.	0ryy	.	2c/	tol-	0ryy	.	1A	-nus	.	.
!	!	!	!	!LO:TX:t=P:problem:kreska pseudotaktowa	!	!	!	!	!	!	!
.	.	.	.	2c/	-lis	.	.	.	.	.	.
.	.	.	.	1d	pec-	.	.	1B-	de-	.	.
=5-	=5-	=5-	=5-	=5-	=5-	=5-	=5-	=5-	=5-	=5-	=5-
!LO:TX:t=P:problem:kreska pseudotaktowa	!	!	!	!	!	!	!	!LO:TX:t=P:problem:kreska pseudotaktowa	!	!	!
1r	.	0ryy	.	1e	.	0ryy	.	0c	-i	00r	.
0F	A-	.	.	2c/	-ca-	.	.	.	.	.	.
.	.	.	.	1f\	-ta	.	.	.	.	.	.
=6-	=6-	=6-	=6-	=6-	=6-	=6-	=6-	=6-	=6-	=6-	=6-
.	.	0ryy	.	.	.	0ryy	.	2r	.	.	.
.	.	.	.	4e\	.	.	.	2c/	qui	.	.
!	!	!	!	!LO:TX:t=P:problem:kreska pseudotaktowa	!	!	!	!	!	!	!
.	.	.	.	4d\	.	.	.	.	.	.	.
*	*	*	*	*2\right	*	*	*	*	*	*	*
1A	-gnus	.	.	2e\	mun-	.	.	2c/	tol-	.	.
!	!	!	!	!	!	!	!	!LO:TX:t=P:problem:kreska pseudotaktowa	!	!	!
.	.	.	.	1f\	-di;	.	.	2c/	-lis	.	.
=7-	=7-	=7-	=7-	=7-	=7-	=7-	=7-	=7-	=7-	=7-	=7-
!	!	!	!	!	!	!	!	!	!	!LO:TX:t=P:problem:kreska pseudotaktowa	!
1B-	de-	0ryy	.	.	.	0ryy	.	1d	pec-	1r	.
.	.	.	.	2.g\	.	.	.	.	.	.	.
!LO:TX:t=P:problem:kreska pseudotaktowa	!	!	!	!	!	!	!	!	!	!	!
1c	-i;	.	.	.	.	.	.	1e	-ca-	0c	A-
.	.	.	.	4f\	.	.	.	.	.	.	.
.	.	.	.	4e\	.	.	.	.	.	.	.
.	.	.	.	4d\	.	.	.	.	.	.	.
=8-	=8-	=8-	=8-	=8-	=8-	=8-	=8-	=8-	=8-	=8-	=8-
!	!	!	!	!LO:TX:t=P:problem:kreska pseudotaktowa	!	!	!	!LO:SIC:v:t=custos g	!	!	!
2r	.	0ryy	.	1c	.	0ryy	.	2c/	-ta	.	.
*	*	*	*	*	*	*	*	*2\right	*	*	*
!LO:TX:t=P:problem:kreska pseudotaktowa	!	!	!	!	!	!	!	!LO:LB:g=original	!	!	!
2C/	qui	.	.	.	.	.	.	2.g\	mun-	.	.
2C/	tol-	.	.	0r	.	.	.	.	.	1e	-gnus
.	.	.	.	.	.	.	.	4f\	.	.	.
!	!	!	!	!	!	!	!	!LO:TX:t=P:problem:kreska pseudotaktowa	!	!	!
2C/	-lis	.	.	.	.	.	.	2e\	-di,	.	.
=9-	=9-	=9-	=9-	=9-	=9-	=9-	=9-	=9-	=9-	=9-	=9-
!LO:TX:t=P:problem:kreska pseudotaktowa	!	!	!	!	!	!	!	!	!	!	!
1D	pec-	0ryy	.	.	.	0ryy	.	1d	.	1f	de-
!	!	!	!	!LO:SIC:v:t=custos G	!	!	!	!	!	!LO:TX:t=P:problem:kreska pseudotaktowa	!
1E	-ca-	.	.	2r	.	.	.	2c/	.	1g	-i,
*	*	*	*	*	*	*	*	*	*ij	*	*
!	!	!	!	!LO:TX:t=P:problem:kreska pseudotaktowa	!	!	!	!LO:TX:t=P:problem:kreska pseudotaktowa	!	!	!
.	.	.	.	2G/	mi-	.	.	2g\	qui	.	.
!	!	!	!	!LO:LB:g=original	!	!	!	!	!	!	!
=10-	=10-	=10-	=10-	=10-	=10-	=10-	=10-	=10-	=10-	=10-	=10-
2C/	-ta	0ryy	.	2G/	-ſe-	0ryy	.	2e\	tol-	2r	.
2.F/	mun-	.	.	2A/	-re-	.	.	1f	.	2c/	qui
.	.	.	.	2F/	-re	.	.	.	.	2c/	tol-
4G/	.	.	.	.	.	.	.	.	.	.	.
*2\right	*	*	*	*	*	*	*	*	*	*	*
!LO:SIC:v:t=custos G	!	!	!	!	!	!	!	!	!	!	!
!LO:TX:t=P:problem:kreska pseudotaktowa	!	!	!	!	!	!	!	!LO:TX:t=P:problem:kreska pseudotaktowa	!	!LO:TX:t=P:problem:kreska pseudotaktowa	!
2A\	-di	.	.	1c\	no-	.	.	2e\	-lis	2c/	-lis
!LO:LB:g=original	!	!	!	!	!	!	!	!	!	!	!
=11-	=11-	=11-	=11-	=11-	=11-	=11-	=11-	=11-	=11-	=11-	=11-
!LO:TX:t=P:problem:kreska pseudotaktowa	!	!	!	!	!	!	!	!	!	!	!
1G	.	0ryy	.	.	.	0ryy	.	1.g	pec-	1d	pec-
!	!	!	!	!LO:TX:t=P:problem:kreska pseudotaktowa	!	!	!	!	!	!	!
.	.	.	.	2B-/	.	.	.	.	.	.	.
!	!	!	!	!	!	!	!	!	!	!LO:SIC:v:t=custos f	!
2r	.	.	.	1.c	.	.	.	.	.	2e/	.
!	!	!	!	!	!	!	!	!LO:TX:t=P:problem:kreska pseudotaktowa:między nutą a kropką	!	!LO:LB:g=original	!
1F\	pec-	.	.	.	.	.	.	2.a\	-ca-	2.f/	-ca-
=12-	=12-	=12-	=12-	=12-	=12-	=12-	=12-	=12-	=12-	=12-	=12-
.	.	0ryy	.	.	.	0ryy	.	.	.	.	.
.	.	.	.	.	.	.	.	4g\	.	4e/	.
!LO:TX:t=P:problem:kreska pseudotaktowa	!	!	!	!LO:TX:t=P:problem:kreska pseudotaktowa	!	!	!	!	!	!	!
2BB-/	-ca-	.	.	2B-/	.	.	.	2.g\	-ta	4d/	-ta
!	!	!	!	!	!	!	!	!	!	!LO:TX:t=P:problem:kreska pseudotaktowa	!
.	.	.	.	.	.	.	.	.	.	4c/	.
1D	-ta	.	.	2A/	.	.	.	.	.	2d/	mun-
.	.	.	.	.	.	.	.	4f\	.	.	.
.	.	.	.	4G/	.	.	.	1f\	mun-	2B-/	.
.	.	.	.	4F/	.	.	.	.	.	.	.
=13-	=13-	=13-	=13-	=13-	=13-	=13-	=13-	=13-	=13-	=13-	=13-
1C	mun-	0ryy	.	1G	.	0ryy	.	.	.	1c	-di,
!	!	!	!	!	!	!	!	!LO:TX:t=P:problem:kreska pseudotaktowa	!	!	!
.	.	.	.	.	.	.	.	2e\	.	.	.
!	!	!	!	!LO:TX:t=P:problem:kreska pseudotaktowa	!	!	!	!	!	!	!
!LO:TX:t=P:problem:kreska pseudotaktowa	!	!	!	!LO:TX:a:t=2	!	!	!	!	!	!LO:TX:t=P:problem:kreska pseudotaktowa	!
1F	-di;	.	.	0F	-bis;	.	.	2.f\	.	1A	.
!	!	!	!	!	!	!	!	!LO:SIC:v:t=custos d	!	!	!
.	.	.	.	.	.	.	.	4e\	.	.	.
!	!	!	!	!	!	!	!	!LO:LB:g=original	!	!	!
=14-	=14-	=14-	=14-	=14-	=14-	=14-	=14-	=14-	=14-	=14-	=14-
2r	.	0ryy	.	.	.	0ryy	.	2d/	.	2r	.
*	*	*	*	*	*	*	*	*	*	*2\right	*ij
2F/	mi-	.	.	.	.	.	.	2c/	.	2a\	qui
2F/	-ſe-	.	.	1r	.	.	.	1d	.	2a\	tol-
!LO:TX:t=P:problem:kreska pseudotaktowa	!	!	!	!	!	!	!	!	!	!LO:TX:t=P:problem:kreska pseudotaktowa	!
2G\	-re-	.	.	.	.	.	.	.	.	2g\	-lis
=15-	=15-	=15-	=15-	=15-	=15-	=15-	=15-	=15-	=15-	=15-	=15-
!	!	!	!	!	!	!	!	!LO:TX:t=P:problem:kreska pseudotaktowa	!	!	!
2.A\	-re	0ryy	.	2r	.	0ryy	.	1c	-di	2e/	pec-
*	*	*	*	*	*ij	*	*	*	*Xij	*	*
!	!	!	!	!LO:TX:t=P:problem:kreska pseudotaktowa	!	!	!	!	!	!	!
.	.	.	.	2F/	mi-	.	.	.	.	2.f\	-ca-
!LO:TX:t=P:problem:kreska pseudotaktowa	!	!	!	!	!	!	!	!	!	!	!
4B-\	no-	.	.	.	.	.	.	.	.	.	.
4c\	-bis;	.	.	2F/	-ſe-	.	.	2r	.	.	.
4A\	.	.	.	.	.	.	.	.	.	4e/	-ta
2.B-\	.	.	.	2G/	-re-	.	.	2g\	pec-	1d/	mun-
=16-	=16-	=16-	=16-	=16-	=16-	=16-	=16-	=16-	=16-	=16-	=16-
!	!	!	!	!LO:TX:t=P:problem:kreska pseudotaktowa	!	!	!	!	!	!	!
.	.	0ryy	.	1A	-re	0ryy	.	2e\	-ca-	.	.
4A\	.	.	.	.	.	.	.	.	.	.	.
1A	.	.	.	.	.	.	.	2.f\	-ta	2c/	.
*	*	*	*	*lig	*	*	*	*	*	*	*
!	!	!	!	!	!	!	!	!	!	!LO:TX:t=P:problem:kreska pseudotaktowa	!
.	.	.	.	1B-	no-	.	.	.	.	1d	-di
*	*	*	*	*	*	*	*	*	*	*	*Xij
.	.	.	.	.	.	.	.	4d/	.	.	.
!	!	!	!	!	!	!	!	!LO:TX:t=P:problem:kreska pseudotaktowa	!	!	!
2G\	.	.	.	.	.	.	.	2g\	.	.	.
=17-	=17-	=17-	=17-	=17-	=17-	=17-	=17-	=17-	=17-	=17-	=17-
*	*	*	*	*col	*	*	*	*	*	*	*
!LO:SIC:v:t=custos F	!	!	!	!	!	!	!	!	!	!	!
!LO:TX:t=P:problem:kreska pseudotaktowa	!	!	!	!	!	!	!	!	!	!	!
1A	.	0ryy	.	2.c/	.	0ryy	.	2e\	.	2r	.
.	.	.	.	.	.	.	.	2.f\	mun-	1a	mi-
*	*	*	*	*Xlig	*	*	*	*	*	*	*
.	.	.	.	4B-/	.	.	.	.	.	.	.
*	*	*	*	*Xcol	*	*	*	*	*	*	*
!LO:LB:g=original	!	!	!	!	!	!	!	!	!	!	!
!LO:TX:t=P:problem:kreska pseudotaktowa	!	!	!	!	!	!	!	!	!	!	!
1F	.	.	.	4A/	.	.	.	.	.	.	.
.	.	.	.	4G/	.	.	.	4e\	.	.	.
!	!	!	!	!LO:TX:t=P:problem:kreska pseudotaktowa	!	!	!	!	!	!LO:TX:t=P:problem:kreska pseudotaktowa	!
.	.	.	.	2c/	.	.	.	4d/	-di;	2a\	-ſe-
!	!	!	!	!	!	!	!	!LO:TX:t=P:problem:kreska pseudotaktowa	!	!	!
.	.	.	.	.	.	.	.	4c/	.	.	.
=18-	=18-	=18-	=18-	=18-	=18-	=18-	=18-	=18-	=18-	=18-	=18-
!	!	!	!	!LO:SIC:v:t=custos A	!	!	!	!	!	!	!
2r	.	0ryy	.	2B-/	.	0ryy	.	2d/	.	2g\	-re-
*	*ij	*	*	*	*	*	*	*	*	*	*
!	!	!	!	!LO:LB:g=original	!	!	!	!	!	!LO:TX:t=P:problem:kreska pseudotaktowa	!
2C/	mi-	.	.	1A	.	.	.	2c/	.	2e/	-re
!	!	!	!	!	!	!	!	!LO:TX:t=P:problem:kreska pseudotaktowa	!	!LO:SIC:v:t=custos g	!
2D/	.	.	.	.	.	.	.	1B-	.	2f\	.
!LO:TX:t=P:problem:kreska pseudotaktowa	!	!	!	!	!	!	!	!	!	!LO:PB:g=original	!
2E/	-ſe-	.	.	2G/	.	.	.	.	.	2g\	no-
=19-	=19-	=19-	=19-	=19-	=19-	=19-	=19-	=19-	=19-	=19-	=19-
!	!	!	!	!LO:TX:t=P:problem:kreska pseudotaktowa	!	!	!	!	!	!LO:TX:t=P:problem:kreska pseudotaktowa	!
2.F/	-re-	0ryy	.	1A	-bis	0ryy	.	2.A/	.	1c	-bis;
*	*	*	*	*	*Xij	*	*	*	*	*	*
!	!	!	!	!	!	!	!	!LO:SIC:v:t=custos c	!	!	!
4G\	.	.	.	.	.	.	.	4B-/	.	.	.
!	!	!	!	!	!	!	!	!LO:LB:g=original	!	!	!
!	!	!	!	!	!	!	!	!LO:TX:t=P:problem:kreska pseudotaktowa	!	!	!
2A\	.	.	.	2r	.	.	.	1c	.	2r	.
*	*	*	*	*	*	*	*	*	*	*	*ij
4F/	-re	.	.	2f\	mi-	.	.	.	.	1c/	mi-
!LO:TX:t=P:problem:kreska pseudotaktowa	!	!	!	!	!	!	!	!	!	!	!
4G/	.	.	.	.	.	.	.	.	.	.	.
=20-	=20-	=20-	=20-	=20-	=20-	=20-	=20-	=20-	=20-	=20-	=20-
4A\	.	0ryy	.	2f\	-ſe-	0ryy	.	2F/	.	.	.
4B-\	.	.	.	.	.	.	.	.	.	.	.
!	!	!	!	!	!	!	!	!	!	!LO:TX:t=P:problem:kreska pseudotaktowa	!
1c	no-	.	.	2f\	-re-	.	.	2A/	.	2c/	-se-
!	!	!	!	!LO:TX:t=P:problem:kreska pseudotaktowa	!	!	!	!LO:TX:t=P:problem:kreska pseudotaktowa	!	!	!
.	.	.	.	0g	-re	.	.	1G	.	1d	-re-
2B-\	.	.	.	.	.	.	.	.	.	.	.
=21-	=21-	=21-	=21-	=21-	=21-	=21-	=21-	=21-	=21-	=21-	=21-
!LO:TX:t=P:problem:kreska pseudotaktowa	!	!	!	!	!	!	!	!	!	!LO:TX:t=P:problem:kreska pseudotaktowa	!
1c	-bis	0ryy	.	.	.	0ryy	.	2r	.	1e	-re
*	*Xij	*	*	*	*	*	*	*	*	*	*
!	!	!	!	!	!	!	!	!LO:TX:t=P:problem:kreska pseudotaktowa	!	!	!
.	.	.	.	.	.	.	.	2c/	mi-	.	.
1r	.	.	.	2r	.	.	.	2A/	-ſe-	2.c/	no-
.	.	.	.	2.g\	no-	.	.	1c\	-re-	.	.
.	.	.	.	.	.	.	.	.	.	4d/	.
=22-	=22-	=22-	=22-	=22-	=22-	=22-	=22-	=22-	=22-	=22-	=22-
2r	.	0ryy	.	.	.	0ryy	.	.	.	4e/	.
.	.	.	.	4f\	-biS;	.	.	.	.	4f/	.
!LO:TX:t=P:problem:kreska pseudotaktowa	!	!	!	!	!	!	!	!LO:TX:t=P:problem:kreska pseudotaktowa	!	!	!
2C/	mi-	.	.	2.e\	.	.	.	2c/	-re	2.g\	.
*	*	*	*	*	*	*	*	*lig	*	*	*
2E/	-ſe-	.	.	.	.	.	.	1c	no-	.	.
.	.	.	.	4d\	.	.	.	.	.	4e/	.
2F/	-re-	.	.	2.c/	.	.	.	.	.	2.a\	.
=23-	=23-	=23-	=23-	=23-	=23-	=23-	=23-	=23-	=23-	=23-	=23-
1D	-re	0ryy	.	.	.	0ryy	.	1F	.	.	.
.	.	.	.	8B-/L	.	.	.	.	.	4g\	.
.	.	.	.	8A/J	.	.	.	.	.	.	.
!	!	!	!	!LO:TX:t=P:problem:kreska pseudotaktowa	!	!	!	!	!	!	!
.	.	.	.	2B-/	.	.	.	.	.	1f	.
*	*	*	*	*	*	*	*	*Xlig	*	*	*
1C	no-	.	.	1c	.	.	.	1G	-bis,	.	.
!	!	!	!	!	!	!	!	!	!	!LO:TX:t=P:problem:kreska pseudotaktowa	!
.	.	.	.	.	.	.	.	.	.	2e/	.
=24-	=24-	=24-	=24-	=24-	=24-	=24-	=24-	=24-	=24-	=24-	=24-
!	!	!	!	!	!	!	!	!LO:TX:t=P:problem:kreska pseudotaktowa	!	!	!
0F	-bis;	0ryy	.	2r	.	0ryy	.	1F	.	1f	-bis;
*	*	*	*	*	*ij	*	*	*	*	*	*Xij
!	!	!	!	!LO:TX:t=P:problem:kreska pseudotaktowa	!	!	!	!	!	!	!
.	.	.	.	2c/	mi-	.	.	.	.	.	.
.	.	.	.	1.f	-ſe-	.	.	2r	.	2r	.
*	*	*	*	*	*	*	*	*	*ij	*	*
!	!	!	!	!	!	!	!	!	!	!LO:SIC:v:t=custos a	!
.	.	.	.	.	.	.	.	2F/	mi-	1a\	mi-
=25-	=25-	=25-	=25-	=25-	=25-	=25-	=25-	=25-	=25-	=25-	=25-
!	!	!	!	!	!	!	!	!LO:TX:t=P:problem:kreska pseudotaktowa	!	!	!
1r	.	0ryy	.	.	.	0ryy	.	1c	.	.	.
!	!	!	!	!	!	!	!	!	!	!LO:LB:g=original	!
!	!	!	!	!	!	!	!	!	!	!LO:TX:t=P:problem:kreska pseudotaktowa	!
.	.	.	.	2e\	.	.	.	.	.	2a\	-ſe-
!LO:SIC:v:t=custos C	!	!	!	!	!	!	!	!	!	!	!
!LO:TX:t=P:problem:kreska pseudotaktowa	!	!	!	!	!	!	!	!	!	!	!
2r	.	.	.	2d\	-re-	.	.	2B-/	-ſe-	2g\	-re-
*	*ij	*	*	*	*	*	*	*	*	*	*
!LO:LB:g=original	!	!	!	!LO:SIC:v:t=custos B	!	!	!	!	!	!	!
!LO:TX:t=P:problem:kreska pseudotaktowa	!	!	!	!LO:TX:t=P:problem:kreska pseudotaktowa	!	!	!	!	!	!	!
2C/	mi-	.	.	2c/	.	.	.	1A/	-re-	2e\	-re
!	!	!	!	!LO:LB:g=original	!	!	!	!	!	!	!
=26-	=26-	=26-	=26-	=26-	=26-	=26-	=26-	=26-	=26-	=26-	=26-
2D/	.	0ryy	.	1B-	.	0ryy	.	.	.	2f\	no-
!	!	!	!	!	!	!	!	!LO:SIC:v:t=custos A	!	!	!
2E/	-ſe-	.	.	.	.	.	.	2G/	.	2g\	.
!	!	!	!	!	!	!	!	!LO:PB:g=original	!	!LO:TX:t=P:problem:kreska pseudotaktowa	!
2.F/	-re-	.	.	2.A/	.	.	.	1A	-re	1c	-biS,
*	*	*	*	*	*	*	*	*	*Xij	*	*
!LO:TX:t=P:problem:kreska pseudotaktowa	!	!	!	!LO:TX:t=P:problem:kreska pseudotaktowa	!	!	!	!	!	!	!
4G\	.	.	.	4B-/	.	.	.	.	.	.	.
=27-	=27-	=27-	=27-	=27-	=27-	=27-	=27-	=27-	=27-	=27-	=27-
2A\	.	0ryy	.	1c	-re	0ryy	.	2r	.	2r	.
*	*	*	*	*	*	*	*	*	*	*	*ij
!	!	!	!	!	!	!	!	!LO:TX:t=P:problem:kreska pseudotaktowa	!	!	!
4F\	-re	.	.	.	.	.	.	2f\	mi-	1c	mi-
!LO:TX:t=P:problem:kreska pseudotaktowa	!	!	!	!	!	!	!	!	!	!	!
4G\	.	.	.	.	.	.	.	.	.	.	.
4A\	.	.	.	2F/	no-	.	.	2f\	-ſe-	.	.
4B-\	.	.	.	.	.	.	.	.	.	.	.
!	!	!	!	!	!	!	!	!	!	!LO:TX:t=P:problem:kreska pseudotaktowa	!
1c\	no-	.	.	2A/	.	.	.	2f\	-re-	2c/	-ſe-
=28-	=28-	=28-	=28-	=28-	=28-	=28-	=28-	=28-	=28-	=28-	=28-
!	!	!	!	!LO:TX:t=P:problem:kreska pseudotaktowa	!	!	!	!LO:TX:t=P:problem:kreska pseudotaktowa	!	!	!
.	.	0ryy	.	1G	-bis	0ryy	.	0g	-re	1d	-re-
*	*	*	*	*	*Xij	*	*	*	*	*	*
!LO:TX:t=P:problem:kreska pseudotaktowa	!	!	!	!	!	!	!	!	!	!	!
2B-\	.	.	.	.	.	.	.	.	.	.	.
!LO:TX:t=P:problem:kreska pseudotaktowa	!	!	!	!	!	!	!	!	!	!LO:TX:t=P:problem:kreska pseudotaktowa	!
1c	-bis	.	.	2r	.	.	.	.	.	1e	-re
.	.	.	.	2c/	mi-	.	.	.	.	.	.
*	*Xij	*	*	*	*	*	*	*	*	*	*Xij
=29-	=29-	=29-	=29-	=29-	=29-	=29-	=29-	=29-	=29-	=29-	=29-
1r	.	0ryy	.	2A/	-ſe-	0ryy	.	2r	.	2.c/	mi-
.	.	.	.	1c	-re-	.	.	2.g\	no-	.	.
.	.	.	.	.	.	.	.	.	.	4d/	-ſe-
2r	.	.	.	.	.	.	.	.	.	4e\	-re-
.	.	.	.	.	.	.	.	4f\	.	4f\	.
!LO:TX:t=P:problem:kreska pseudotaktowa	!	!	!	!	!	!	!	!	!	!	!
2C/	mi-	.	.	2c/	-re	.	.	2.e\	-bis	2.g\	-re
=30-	=30-	=30-	=30-	=30-	=30-	=30-	=30-	=30-	=30-	=30-	=30-
*	*	*	*	*lig	*	*	*	*	*	*	*
2E/	-ſe-	0ryy	.	1c	no-	0ryy	.	.	.	.	.
.	.	.	.	.	.	.	.	4d\	.	4e/	.
2F/	-re-	.	.	.	.	.	.	2.c/	.	2.a\	no-
1D	-re	.	.	1F	.	.	.	.	.	.	.
.	.	.	.	.	.	.	.	8B-/L	.	4g\	.
.	.	.	.	.	.	.	.	8A/J	.	.	.
!	!	!	!	!	!	!	!	!LO:TX:t=P:problem:kreska pseudotaktowa	!	!LO:SIC:v:t=custos e	!
.	.	.	.	.	.	.	.	2B-/	.	1f\	.
*	*	*	*	*Xlig	*	*	*	*	*	*	*
=31-	=31-	=31-	=31-	=31-	=31-	=31-	=31-	=31-	=31-	=31-	=31-
1C	no-	0ryy	.	1G	-bis;	0ryy	.	1c	.	.	.
*	*	*	*	*	*	*	*	*	*	*clefC3	*
.	.	.	.	.	.	.	.	.	.	2e\	-bis;
!	!	!	!	!	!	!	!	!LO:SIC:v:t=custos F	!	!	!
1Fl;<	-bis;	.	.	1Fl;	.	.	.	1cl;<	.	1fl;<	.
*	*	*	*	*	*	*	*	*	*	*clefC2	*
!	!	!	!	!	!	!	!	!LO:LB:g=original	!	!	!
=32||	=32||	=32||	=32||	=32||	=32||	=32||	=32||	=32||	=32||	=32||	=32||
*	*	*M2/1	*	*M2/1	*	*	*	*M2/1	*	*M2/1	*
*	*	*met(C|)	*	*met(C|)	*	*	*	*met(C|)	*	*met(C|)	*
!LO:TX:a:t=Agnus se&colon;\ncundus tacet&colon;	!	!	!	!	!	!	!	!LO:TX:t=P:problem:kreska pseudotaktowa	!	!LO:TX:t=P:problem:kreska pseudotaktowa	!
0ryy	.	0ryy	.	1.F	A-	0ryy	.	0r	.	0r	.
!	!	!	!	!LO:TX:t=P:problem:kreska pseudotaktowa	!	!	!	!	!	!	!
.	.	.	.	2G/	-gnus	.	.	.	.	.	.
=33-	=33-	=33-	=33-	=33-	=33-	=33-	=33-	=33-	=33-	=33-	=33-
0ryy	.	0ryy	.	2.A/	de-	0ryy	.	2.F/	A-	0f	A-
!	!	!	!	!	!	!	!	!LO:TX:t=P:problem:kreska pseudotaktowa	!	!	!
.	.	.	.	4B-/	.	.	.	4G/	.	.	.
!	!	!	!	!LO:SIC:v:t=custos d	!	!	!	!	!	!	!
.	.	.	.	2c/	-i	.	.	2A/	-gnus	.	.
!	!	!	!	!LO:PB:g=original	!	!	!	!LO:TX:t=P:problem:oznaczona poprawka rytmiczna	!	!	!
.	.	.	.	4d\	.	.	.	2.B-/	de-	.	.
!	!	!	!	!LO:TX:t=P:problem:kreska pseudotaktowa	!	!	!	!	!	!	!
.	.	.	.	4c\	.	.	.	.	.	.	.
=34-	=34-	=34-	=34-	=34-	=34-	=34-	=34-	=34-	=34-	=34-	=34-
!	!	!	!	!	!	!	!	!	!	!LO:TX:t=P:problem:kreska pseudotaktowa	!
0ryy	.	0ryy	.	4d\	.	0ryy	.	.	.	1f	-gnus
.	.	.	.	4e\	.	.	.	4c/	.	.	.
!	!	!	!	!	!	!	!	!LO:TX:t=P:problem:kreska pseudotaktowa	!	!	!
.	.	.	.	1f	.	.	.	2d\	-i,	.	.
.	.	.	.	.	.	.	.	1c	.	1g	.
.	.	.	.	2e\	.	.	.	.	.	.	.
=35-	=35-	=35-	=35-	=35-	=35-	=35-	=35-	=35-	=35-	=35-	=35-
!	!	!	!	!LO:TX:t=P:problem:kreska pseudotaktowa	!	!	!	!LO:TX:t=P:problem:kreska pseudotaktowa	!	!	!
0ryy	.	0ryy	.	0f	.	0ryy	.	1F	.	1.a	de-
.	.	.	.	.	.	.	.	2r	.	.	.
*	*	*	*	*	*	*	*	*	*ij	*	*
.	.	.	.	.	.	.	.	1f\	A-	4g\	-i,
!	!	!	!	!	!	!	!	!	!	!LO:TX:t=P:problem:kreska pseudotaktowa	!
.	.	.	.	.	.	.	.	.	.	4f\	.
=36-	=36-	=36-	=36-	=36-	=36-	=36-	=36-	=36-	=36-	=36-	=36-
0ryy	.	0ryy	.	1r	.	0ryy	.	.	.	2a\	.
.	.	.	.	.	.	.	.	4e\	.	2.g\	.
!	!	!	!	!	!	!	!	!LO:TX:t=P:problem:kreska pseudotaktowa	!	!	!
.	.	.	.	.	.	.	.	4d\	.	.	.
.	.	.	.	2r	.	.	.	4c\	.	.	.
.	.	.	.	.	.	.	.	4d\	.	4f\	.
!	!	!	!	!LO:TX:t=P:problem:kreska pseudotaktowa	!	!	!	!	!	!	!
.	.	.	.	2c/	qui	.	.	4e\	.	4e/	.
!	!	!	!	!	!	!	!	!	!	!LO:TX:t=P:problem:kreska pseudotaktowa	!
.	.	.	.	.	.	.	.	4f\	.	4d/	.
=37-	=37-	=37-	=37-	=37-	=37-	=37-	=37-	=37-	=37-	=37-	=37-
!	!	!	!	!	!	!	!	!LO:SIC:v:t=custos a	!	!	!
0ryy	.	0ryy	.	2c/	tol-	0ryy	.	2g\	.	2e/	.
!	!	!	!	!	!	!	!	!LO:LB:g=original	!	!	!
!	!	!	!	!	!	!	!	!LO:TX:t=P:problem:kreska pseudotaktowa	!	!LO:TX:t=P:problem:kreska pseudotaktowa	!
.	.	.	.	2F/	.	.	.	2a\	.	2f/	.
.	.	.	.	2G/	-lis	.	.	2g\	.	2e/	.
.	.	.	.	1B-/	pec-	.	.	2.f\	.	2.d/	.
=38-	=38-	=38-	=38-	=38-	=38-	=38-	=38-	=38-	=38-	=38-	=38-
0ryy	.	0ryy	.	.	.	0ryy	.	.	.	.	.
!	!	!	!	!	!	!	!	!	!	!LO:SIC:v:t=custos c	!
.	.	.	.	.	.	.	.	4e\	.	4c/	.
!	!	!	!	!LO:TX:t=P:problem:kreska pseudotaktowa	!	!	!	!	!	!LO:LB:g=original	!
.	.	.	.	2A/	-ca-	.	.	4d\	-gnus	1c	.
!	!	!	!	!	!	!	!	!LO:TX:t=P:problem:kreska pseudotaktowa	!	!	!
.	.	.	.	.	.	.	.	4c\	.	.	.
.	.	.	.	1G	-ta	.	.	1d	de-	.	.
.	.	.	.	.	.	.	.	.	.	2B-/	.
=39-	=39-	=39-	=39-	=39-	=39-	=39-	=39-	=39-	=39-	=39-	=39-
!	!	!	!	!	!	!	!	!LO:TX:t=P:problem:kreska pseudotaktowa	!	!LO:TX:t=P:problem:kreska pseudotaktowa	!
0ryy	.	0ryy	.	2.A/	mun-	0ryy	.	1c	-i	0c	.
*	*	*	*	*	*	*	*	*	*Xij	*	*
!	!	!	!	!LO:TX:t=P:problem:kreska pseudotaktowa	!	!	!	!	!	!	!
.	.	.	.	4B-/	.	.	.	.	.	.	.
.	.	.	.	2c/	.	.	.	2r	.	.	.
.	.	.	.	2A/	-di;	.	.	2c/	qui	.	.
=40-	=40-	=40-	=40-	=40-	=40-	=40-	=40-	=40-	=40-	=40-	=40-
0ryy	.	0ryy	.	2B-/	.	0ryy	.	2d\	tol-	2r	.
!	!	!	!	!LO:TX:t=P:problem:kreska pseudotaktowa	!	!	!	!LO:TX:t=P:problem:kreska pseudotaktowa	!	!	!
.	.	.	.	2c/	.	.	.	2e\	-lis	2g\	qui
*	*	*	*	*	*ij	*	*	*	*	*	*
!	!	!	!	!	!	!	!	!	!	!LO:TX:t=P:problem:kreska pseudotaktowa	!
.	.	.	.	2F/	qui	.	.	2.f\	pec-	1a	tol-
.	.	.	.	1f\	tol-	.	.	.	.	.	.
.	.	.	.	.	.	.	.	4e\	-ca-	.	.
=41-	=41-	=41-	=41-	=41-	=41-	=41-	=41-	=41-	=41-	=41-	=41-
0ryy	.	0ryy	.	.	.	0ryy	.	2d\	-ta	1.a	-lis
.	.	.	.	4e\	.	.	.	4c/	.	.	.
!	!	!	!	!LO:SIC:v:t=custos e	!	!	!	!	!	!	!
!	!	!	!	!LO:TX:t=P:problem:kreska pseudotaktowa	!	!	!	!LO:TX:t=P:problem:kreska pseudotaktowa	!	!	!
.	.	.	.	4d\	.	.	.	4B-/	.	.	.
!	!	!	!	!LO:LB:g=original	!	!	!	!	!	!	!
.	.	.	.	2e\	.	.	.	2c/	.	.	.
.	.	.	.	2f\	.	.	.	2B-/	.	2d/	pec-
=42-	=42-	=42-	=42-	=42-	=42-	=42-	=42-	=42-	=42-	=42-	=42-
!	!	!	!	!	!	!	!	!LO:SIC:v:t=custos B	!	!LO:TX:t=P:problem:kreska pseudotaktowa	!
0ryy	.	0ryy	.	2c/	-lis	0ryy	.	2A/	.	1f	-ca-
!	!	!	!	!	!	!	!	!LO:LB:g=original	!	!	!
.	.	.	.	1d	pec-	.	.	2.B-/	.	.	.
.	.	.	.	.	.	.	.	.	.	2g\	-ta
.	.	.	.	.	.	.	.	4A/	.	.	.
.	.	.	.	4c/	.	.	.	4F/	.	2.a\	.
!	!	!	!	!LO:TX:t=P:problem:kreska pseudotaktowa	!	!	!	!LO:TX:t=P:problem:kreska pseudotaktowa	!	!	!
.	.	.	.	4B-/	.	.	.	4G/	.	.	.
=43-	=43-	=43-	=43-	=43-	=43-	=43-	=43-	=43-	=43-	=43-	=43-
0ryy	.	0ryy	.	2c/	.	0ryy	.	2A/	mun-	.	.
.	.	.	.	.	.	.	.	.	.	4g\	.
.	.	.	.	2d\	.	.	.	2.B-/	-di,	4f\	mun-
!	!	!	!	!	!	!	!	!	!	!LO:TX:t=P:problem:kreska pseudotaktowa	!
.	.	.	.	.	.	.	.	.	.	4e\	.
.	.	.	.	2A/	-ca-	.	.	.	.	2f\	-di;
.	.	.	.	.	.	.	.	4A/	.	.	.
.	.	.	.	2c/	-ta-	.	.	1A/	.	2e\	.
=44-	=44-	=44-	=44-	=44-	=44-	=44-	=44-	=44-	=44-	=44-	=44-
0ryy	.	0ryy	.	1B-	-mun-	0ryy	.	.	.	1d	.
!	!	!	!	!	!	!	!	!LO:TX:t=P:problem:kreska pseudotaktowa	!	!	!
.	.	.	.	.	.	.	.	2G/	.	.	.
!	!	!	!	!LO:TX:t=P:problem:kreska pseudotaktowa	!	!	!	!	!	!LO:TX:t=P:problem:kreska pseudotaktowa	!
.	.	.	.	0A	-di	.	.	2A/	.	1c	.
*	*	*	*	*	*Xij	*	*	*	*	*	*
.	.	.	.	.	.	.	.	2.c/	.	.	.
=45-	=45-	=45-	=45-	=45-	=45-	=45-	=45-	=45-	=45-	=45-	=45-
0ryy	.	0ryy	.	.	.	0ryy	.	.	.	2r	.
.	.	.	.	.	.	.	.	4B-/	.	.	.
*	*	*	*	*	*	*	*	*	*	*	*ij
!	!	!	!	!	!	!	!	!LO:TX:t=P:problem:kreska pseudotaktowa	!	!	!
.	.	.	.	.	.	.	.	2A/	.	2c/	pec-
.	.	.	.	1r	.	.	.	1G	.	2d/	-ca-
!	!	!	!	!	!	!	!	!	!	!LO:SIC:v:t=custos f	!
!	!	!	!	!	!	!	!	!	!	!LO:TX:t=P:problem:kreska pseudotaktowa	!
.	.	.	.	.	.	.	.	.	.	2e/	-ta
!	!	!	!	!	!	!	!	!	!	!LO:PB:g=original	!
=46-	=46-	=46-	=46-	=46-	=46-	=46-	=46-	=46-	=46-	=46-	=46-
!	!	!	!	!	!	!	!	!LO:TX:t=P:problem:kreska pseudotaktowa	!	!	!
0ryy	.	0ryy	.	2r	.	0ryy	.	1F	.	2.f\	mun-
.	.	.	.	1c	mi-	.	.	.	.	.	.
!	!	!	!	!	!	!	!	!	!	!LO:TX:t=P:problem:kreska pseudotaktowa	!
.	.	.	.	.	.	.	.	.	.	4g\	.
.	.	.	.	.	.	.	.	1r	.	2a\	.
!	!	!	!	!LO:TX:t=P:problem:kreska pseudotaktowa	!	!	!	!	!	!	!
.	.	.	.	2B-/	-ſe-	.	.	.	.	2.g\	.
=47-	=47-	=47-	=47-	=47-	=47-	=47-	=47-	=47-	=47-	=47-	=47-
0ryy	.	0ryy	.	2A/	-re-	0ryy	.	2r	.	.	.
.	.	.	.	.	.	.	.	.	.	4f\	.
!	!	!	!	!	!	!	!	!LO:SIC:v:t=custos B	!	!	!
!	!	!	!	!	!	!	!	!LO:TX:t=P:problem:kreska pseudotaktowa	!	!	!
.	.	.	.	2F/	-re	.	.	2c/	mi-	1f	.
!	!	!	!	!	!	!	!	!LO:PB:g=original	!	!	!
.	.	.	.	1G	no-	.	.	2B-/	-ſe-	.	.
!	!	!	!	!	!	!	!	!LO:TX:t=P:problem:kreska pseudotaktowa	!	!LO:TX:t=P:problem:kreska pseudotaktowa	!
.	.	.	.	.	.	.	.	2G/	-re-	2e/	.
=48-	=48-	=48-	=48-	=48-	=48-	=48-	=48-	=48-	=48-	=48-	=48-
!	!	!	!	!LO:TX:t=P:problem:kreska pseudotaktowa	!	!	!	!	!	!LO:TX:t=P:problem:kreska pseudotaktowa	!
0ryy	.	0ryy	.	1F	-bis;	0ryy	.	1A	-re	0f	-di;
*	*	*	*	*	*ij	*	*	*	*	*	*Xij
.	.	.	.	2r	.	.	.	2.B-/	no-	.	.
.	.	.	.	1f\	mi-	.	.	.	.	.	.
!	!	!	!	!	!	!	!	!LO:TX:t=P:problem:kreska pseudotaktowa	!	!	!
.	.	.	.	.	.	.	.	4A/	.	.	.
=49-	=49-	=49-	=49-	=49-	=49-	=49-	=49-	=49-	=49-	=49-	=49-
0ryy	.	0ryy	.	.	.	0ryy	.	4F/	-bis;	1r	.
.	.	.	.	.	.	.	.	4G/	.	.	.
!	!	!	!	!	!	!	!	!LO:TX:t=P:problem:kreska pseudotaktowa	!	!	!
.	.	.	.	2e\	-ſe-	.	.	2A/	.	.	.
.	.	.	.	2d\	-re-	.	.	2B-/	.	2r	.
!	!	!	!	!	!	!	!	!	!	!LO:TX:t=P:problem:kreska pseudotaktowa	!
.	.	.	.	2c\	-re	.	.	1c\	.	2g\	mi-
=50-	=50-	=50-	=50-	=50-	=50-	=50-	=50-	=50-	=50-	=50-	=50-
!	!	!	!	!LO:SIC:v:t=custos c	!	!	!	!	!	!	!
!	!	!	!	!LO:TX:t=P:problem:kreska pseudotaktowa	!	!	!	!	!	!	!
0ryy	.	0ryy	.	1d	no-	0ryy	.	.	.	2f\	.
.	.	.	.	.	.	.	.	2B-/	.	2d/	-ſe-
!	!	!	!	!LO:LB:g=original	!	!	!	!LO:TX:t=P:problem:kreska pseudotaktowa	!	!	!
.	.	.	.	1c	-bis	.	.	0c	.	2.e/	-re-
!	!	!	!	!	!	!	!	!	!	!LO:TX:t=P:problem:kreska pseudotaktowa	!
.	.	.	.	.	.	.	.	.	.	4f/	-re
=51-	=51-	=51-	=51-	=51-	=51-	=51-	=51-	=51-	=51-	=51-	=51-
0ryy	.	0ryy	.	2r	.	0ryy	.	.	.	2g\	no-
.	.	.	.	1c	mi-	.	.	.	.	2a\	.
.	.	.	.	.	.	.	.	1r	.	1g	-bis;
!	!	!	!	!LO:TX:t=P:problem:kreska pseudotaktowa	!	!	!	!	!	!	!
.	.	.	.	2B-/	-ſe-	.	.	.	.	.	.
=52-	=52-	=52-	=52-	=52-	=52-	=52-	=52-	=52-	=52-	=52-	=52-
!	!	!	!	!	!	!	!	!	!	!LO:TX:t=P:problem:kreska pseudotaktowa	!
0ryy	.	0ryy	.	2A/	-re-	0ryy	.	2r	.	1c	.
*	*	*	*	*	*	*	*	*	*ij	*	*
!	!	!	!	!	!	!	!	!LO:TX:t=P:problem:kreska pseudotaktowa	!	!	!
.	.	.	.	2F/	-re	.	.	2f\	mi-	.	.
.	.	.	.	1A	no-	.	.	2e\	-ſe-	2r	.
*	*	*	*	*	*	*	*	*	*	*	*ij
!	!	!	!	!	!	!	!	!LO:SIC:v:t=custos d	!	!LO:SIC:v:t=custos g	!
!	!	!	!	!	!	!	!	!LO:TX:t=P:problem:kreska pseudotaktowa	!	!LO:TX:t=P:problem:kreska pseudotaktowa	!
.	.	.	.	.	.	.	.	2c/	-re-	2f\	mi-
!	!	!	!	!	!	!	!	!LO:LB:g=original	!	!LO:LB:g=original	!
=53-	=53-	=53-	=53-	=53-	=53-	=53-	=53-	=53-	=53-	=53-	=53-
!	!	!	!	!LO:TX:t=P:problem:kreska pseudotaktowa	!	!	!	!	!	!	!
0ryy	.	0ryy	.	1G	-bis	0ryy	.	2d\	.	2g\	-ſe-
*	*	*	*	*	*Xij	*	*	*	*	*	*
.	.	.	.	.	.	.	.	4c/	.	2.b-\	-re-
!	!	!	!	!	!	!	!	!LO:TX:t=P:problem:kreska pseudotaktowa	!	!	!
.	.	.	.	.	.	.	.	4B-/	.	.	.
.	.	.	.	0r	.	.	.	2c/	.	.	.
.	.	.	.	.	.	.	.	.	.	4a\	-re
!	!	!	!	!	!	!	!	!LO:TX:t=P:problem:kreska pseudotaktowa	!	!LO:TX:t=P:problem:kreska pseudotaktowa	!
.	.	.	.	.	.	.	.	2d/	-re	2.a\	no-
=54-	=54-	=54-	=54-	=54-	=54-	=54-	=54-	=54-	=54-	=54-	=54-
0ryy	.	0ryy	.	.	.	0ryy	.	1B-	no-	.	.
.	.	.	.	.	.	.	.	.	.	8g\L	.
.	.	.	.	.	.	.	.	.	.	8f\J	.
.	.	.	.	.	.	.	.	.	.	2g\	.
!	!	!	!	!	!	!	!	!LO:TX:t=P:problem:kreska pseudotaktowa	!	!LO:TX:t=P:problem:kreska pseudotaktowa	!
.	.	.	.	2r	.	.	.	1A	-bis	00a	-bis
*	*	*	*	*	*	*	*	*	*Xij	*	*Xij
.	.	.	.	2c/	mi-	.	.	.	.	.	.
=55-	=55-	=55-	=55-	=55-	=55-	=55-	=55-	=55-	=55-	=55-	=55-
0ryy	.	0ryy	.	2d/	.	0ryy	.	2r	.	.	.
!	!	!	!	!LO:TX:t=P:problem:kreska pseudotaktowa	!	!	!	!LO:TX:t=P:problem:kreska pseudotaktowa	!	!	!
.	.	.	.	2c/	-ſe-	.	.	2A/	mi-	.	.
.	.	.	.	2.f\	-re-	.	.	2d/	-ſe-	.	.
.	.	.	.	.	.	.	.	2c/	-re-	.	.
.	.	.	.	4e\	-re	.	.	.	.	.	.
=56-	=56-	=56-	=56-	=56-	=56-	=56-	=56-	=56-	=56-	=56-	=56-
0ryy	.	0ryy	.	2d/	no-	0ryy	.	2.f\	-re	.	.
!	!	!	!	!LO:TX:t=P:problem:kreska pseudotaktowa	!	!	!	!	!	!	!
.	.	.	.	2c/	.	.	.	.	.	.	.
!	!	!	!	!	!	!	!	!LO:TX:t=P:problem:kreska pseudotaktowa	!	!	!
.	.	.	.	.	.	.	.	4e\	.	.	.
.	.	.	.	1B-	-bis,	.	.	2d\	no-	1r	.
.	.	.	.	.	.	.	.	4c/	.	.	.
!	!	!	!	!	!	!	!	!LO:SIC:v:t=custos c	!	!	!
!	!	!	!	!	!	!	!	!LO:TX:t=P:problem:kreska pseudotaktowa	!	!	!
.	.	.	.	.	.	.	.	4B-/	.	.	.
!	!	!	!	!	!	!	!	!LO:LB:g=original	!	!	!
=57-	=57-	=57-	=57-	=57-	=57-	=57-	=57-	=57-	=57-	=57-	=57-
!	!	!	!	!LO:TX:t=P:problem:kreska pseudotaktowa	!	!	!	!	!	!	!
0ryy	.	0ryy	.	1A	.	0ryy	.	2.c/	-bis;	2r	.
!	!	!	!	!	!	!	!	!	!	!LO:TX:t=P:problem:kreska pseudotaktowa	!
.	.	.	.	.	.	.	.	.	.	2e/	mi-
!	!	!	!	!	!	!	!	!LO:TX:t=P:problem:kreska pseudotaktowa	!	!	!
.	.	.	.	.	.	.	.	4B-/	.	.	.
.	.	.	.	2r	.	.	.	2A/	.	2f/	.
*	*	*	*	*	*ij	*	*	*	*	*	*
!	!	!	!	!	!	!	!	!LO:TX:t=P:problem:kreska pseudotaktowa	!	!LO:TX:t=P:problem:kreska pseudotaktowa	!
.	.	.	.	2B-/	mi-	.	.	2G/	.	2g\	-ſe-
=58-	=58-	=58-	=58-	=58-	=58-	=58-	=58-	=58-	=58-	=58-	=58-
0ryy	.	0ryy	.	2c/	-ſe-	0ryy	.	2F/	.	2a\	-re-
.	.	.	.	2.d/	-re-	.	.	1B-	.	2.g\	-re
.	.	.	.	4c/	.	.	.	.	.	4f\	.
!	!	!	!	!	!	!	!	!LO:TX:t=P:problem:kreska pseudotaktowa	!	!	!
.	.	.	.	1c\	-re	.	.	2A/	.	1f\	no-
=59-	=59-	=59-	=59-	=59-	=59-	=59-	=59-	=59-	=59-	=59-	=59-
0ryy	.	0ryy	.	.	.	0ryy	.	1G	.	.	.
!	!	!	!	!LO:SIC:v:t=custos c	!	!	!	!	!	!	!
!	!	!	!	!LO:TX:t=P:problem:kreska pseudotaktowa	!	!	!	!	!	!	!
.	.	.	.	2B-/	no-	.	.	.	.	2e/	-bis;
!	!	!	!	!LO:LB:g=original	!	!	!	!	!	!LO:SIC:v:t=custos e	!
!	!	!	!	!LO:TX:t=P:problem:kreska pseudotaktowa	!	!	!	!LO:TX:t=P:problem:kreska pseudotaktowa	!	!LO:TX:t=P:problem:kreska pseudotaktowa	!
.	.	.	.	1c	-bis	.	.	0F	.	00f	.
=60-	=60-	=60-	=60-	=60-	=60-	=60-	=60-	=60-	=60-	=60-	=60-
0ryy	.	0ryy	.	2r	.	0ryy	.	.	.	.	.
!	!	!	!	!LO:TX:t=P:problem:kreska pseudotaktowa	!	!	!	!	!	!	!
.	.	.	.	2c/	mi-	.	.	.	.	.	.
.	.	.	.	2d/	.	.	.	2r	.	.	.
*	*	*	*	*	*	*	*	*	*ij	*	*
.	.	.	.	2c/	-ſe-	.	.	2A/	mi-	.	.
=61-	=61-	=61-	=61-	=61-	=61-	=61-	=61-	=61-	=61-	=61-	=61-
0ryy	.	0ryy	.	2.f\	-re-	0ryy	.	2d\	.	.	.
!	!	!	!	!	!	!	!	!LO:TX:t=P:problem:kreska pseudotaktowa	!	!	!
.	.	.	.	.	.	.	.	2c/	-ſe-	.	.
.	.	.	.	4e\	.	.	.	.	.	.	.
!	!	!	!	!	!	!	!	!	!	!LO:LB:g=original	!
.	.	.	.	2d\	.	.	.	2.f\	-re-	0r	.
.	.	.	.	2c/	-re	.	.	.	.	.	.
!	!	!	!	!	!	!	!	!LO:SIC:v:t=custos d	!	!	!
!	!	!	!	!	!	!	!	!LO:TX:t=P:problem:kreska pseudotaktowa	!	!	!
.	.	.	.	.	.	.	.	4e\	.	.	.
!	!	!	!	!	!	!	!	!LO:LB:g=original	!	!	!
=62-	=62-	=62-	=62-	=62-	=62-	=62-	=62-	=62-	=62-	=62-	=62-
0ryy	.	0ryy	.	1B-	no-	0ryy	.	2d\	-re	.	.
.	.	.	.	.	.	.	.	4c/	.	.	.
!	!	!	!	!	!	!	!	!LO:TX:t=P:problem:kreska pseudotaktowa	!	!	!
.	.	.	.	.	.	.	.	4B-/	.	.	.
!	!	!	!	!LO:TX:t=P:problem:kreska pseudotaktowa	!	!	!	!	!	!LO:SIC:v:t=custos e	!
.	.	.	.	1A	-bis	.	.	1c	no-	2r	.
*	*	*	*	*	*Xij	*	*	*	*	*	*
!	!	!	!	!	!	!	!	!	!	!LO:LB:g=original	!
!	!	!	!	!	!	!	!	!	!	!LO:TX:t=P:problem:kreska pseudotaktowa	!
.	.	.	.	.	.	.	.	.	.	2e/	mi-
=63-	=63-	=63-	=63-	=63-	=63-	=63-	=63-	=63-	=63-	=63-	=63-
0ryy	.	0ryy	.	2r	.	0ryy	.	1B-	.	2f/	-ſe-
.	.	.	.	2d\	mi-	.	.	.	.	2g\	-re-
!	!	!	!	!	!	!	!	!LO:TX:t=P:problem:kreska pseudotaktowa	!	!	!
.	.	.	.	2d\	-ſe-	.	.	1A	-bis	2.a\	-re
*	*	*	*	*	*	*	*	*	*Xij	*	*
!	!	!	!	!LO:TX:t=P:problem:kreska pseudotaktowa	!	!	!	!	!	!	!
.	.	.	.	2c/	.	.	.	.	.	.	.
.	.	.	.	.	.	.	.	.	.	8g\L	.
!	!	!	!	!	!	!	!	!	!	!LO:TX:t=P:problem:kreska pseudotaktowa	!
.	.	.	.	.	.	.	.	.	.	8a\J	.
=64-	=64-	=64-	=64-	=64-	=64-	=64-	=64-	=64-	=64-	=64-	=64-
0ryy	.	0ryy	.	2d/	-re-	0ryy	.	2r	.	2b-\	.
.	.	.	.	2.f\	-re	.	.	1F	mi-	1a	.
.	.	.	.	4e\	.	.	.	.	.	.	.
!	!	!	!	!LO:TX:t=P:problem:kreska pseudotaktowa	!	!	!	!LO:TX:t=P:problem:kreska pseudotaktowa	!	!	!
.	.	.	.	2d/	.	.	.	2G/	-ſe-	2.g\	.
=65-	=65-	=65-	=65-	=65-	=65-	=65-	=65-	=65-	=65-	=65-	=65-
0ryy	.	0ryy	.	2c/	.	0ryy	.	2A/	-re-	.	.
.	.	.	.	.	.	.	.	.	.	4f/	.
.	.	.	.	1d	no-	.	.	2B-/	-re	2.f/	no-
.	.	.	.	.	.	.	.	1G	no-	.	.
.	.	.	.	.	.	.	.	.	.	8e/L	.
.	.	.	.	.	.	.	.	.	.	8d/J	.
.	.	.	.	4c/	.	.	.	.	.	2e/	-bis;
.	.	.	.	4B-/	.	.	.	.	.	.	.
=66-	=66-	=66-	=66-	=66-	=66-	=66-	=66-	=66-	=66-	=66-	=66-
!	!	!	!	!	!	!	!	!LO:TX:a:t=Cum\nvocibus	!	!	!
!	!	!	!	!	!	!	!	!LO:SIC:v:t=custos c	!	!LO:SIC:v:t=custos f	!
0ryy	.	0ryy	.	2c/	-bis.	0ryy	.	0Fl;	-bis;	0fl;<	.
.	.	.	.	2d/	.	.	.	.	.	.	.
!	!	!	!	!LO:TX:t=P:problem:adnotacja Cum (wydrapanie)\nvocibus	!	!	!	!	!	!	!
.	.	.	.	1cl;<	.	.	.	.	.	.	.
!	!	!	!	!LO:PB:g=original	!	!	!	!LO:PB:g=original	!	!LO:PB:g=original	!
=67||	=67||	=67||	=67||	=67||	=67||	=67||	=67||	=67||	=67||	=67||	=67||
*	*	*k[b-]	*	*	*	*k[b-]	*	*	*	*	*
*M2/1	*	*M2/1	*	*M2/1	*	*M2/1	*	*M2/1	*	*M2/1	*
*met(C|)	*	*met(C|)	*	*met(C|)	*	*met(C|)	*	*met(C|)	*	*met(C|)	*
!	!	!	!	!LO:TX:a:t=Cum\nvo\ncibus	!	!LO:TX:t=P:problem:kreska pseudotaktowa	!	!	!	!	!
0F	A-	0F	A-	1r	.	00r	.	0c	A-	1r	.
.	.	.	.	1f	A-	.	.	.	.	0f	A-
=68-	=68-	=68-	=68-	=68-	=68-	=68-	=68-	=68-	=68-	=68-	=68-
!LO:TX:t=P:problem:kreska pseudotaktowa	!	!LO:TX:t=P:problem:kreska pseudotaktowa	!	!	!	!	!	!LO:TX:t=P:problem:kreska pseudotaktowa	!	!	!
1F	-gnus	1A	-gnus	2c/	-gnus	.	.	1c	-gnus	.	.
.	.	.	.	1f	de-	.	.	.	.	.	.
!	!	!	!	!	!	!	!	!	!	!LO:TX:t=P:problem:kreska pseudotaktowa	!
0C	.	0G	de	.	.	.	.	1c	de-	1g	-gnus
.	.	.	.	4e\	.	.	.	.	.	.	.
!	!	!	!	!LO:TX:t=P:problem:kreska pseudotaktowa	!	!	!	!	!	!	!
.	.	.	.	4d\	.	.	.	.	.	.	.
=69-	=69-	=69-	=69-	=69-	=69-	=69-	=69-	=69-	=69-	=69-	=69-
.	.	.	.	1e	-i	1c	A-	2G/	-i;	1g	de-
.	.	.	.	.	.	.	.	2.c/	.	.	.
*lig	*	*	*	*	*	*	*	*	*	*	*
!	!	!	!	!LO:TX:t=P:problem:kreska pseudotaktowa	!	!	!	!	!	!LO:TX:t=P:problem:kreska pseudotaktowa	!
1F	de-	2F/	i	1f	.	2A/	-gnus	.	.	1a	-i;
.	.	.	.	.	.	.	.	4B-/	.	.	.
*	*	*2\right	*	*	*	*	*	*	*	*	*
!	!	!	!	!	!	!	!	!LO:TX:t=P:problem:kreska pseudotaktowa	!	!	!
.	.	2.f\	.	.	.	2.c/	de-	2A/	.	.	.
=70-	=70-	=70-	=70-	=70-	=70-	=70-	=70-	=70-	=70-	=70-	=70-
1G	-i;	.	.	1r	.	.	.	1G	.	2r	.
.	.	8e\L	.	.	.	8B-/L	.	.	.	.	.
.	.	8d\J	.	.	.	8A/J	.	.	.	.	.
!	!	!LO:TX:t=P:problem:kreska pseudotaktowa	!	!	!	!LO:TX:t=P:problem:kreska pseudotaktowa	!	!	!	!	!
.	.	2e\	.	.	.	2B-/	-i;	.	.	2b-\	qui
*Xlig	*	*	*	*	*	*	*	*	*	*	*
!	!	!LO:TX:t=P:problem:kreska pseudotaktowa	!	!	!	!	!	!LO:TX:t=P:problem:kreska pseudotaktowa	!	!	!
2.A\	.	1f	.	2r	.	1c	.	1F	.	2a\	tol-
!	!	!	!	!LO:TX:t=P:problem:kreska pseudotaktowa	!	!	!	!	!	!LO:TX:t=P:problem:kreska pseudotaktowa	!
.	.	.	.	2c/	qui	.	.	.	.	2f/	-lis
!LO:TX:t=P:problem:kreska pseudotaktowa	!	!	!	!	!	!	!	!	!	!	!
4G\	.	.	.	.	.	.	.	.	.	.	.
=71-	=71-	=71-	=71-	=71-	=71-	=71-	=71-	=71-	=71-	=71-	=71-
2F/	.	1r	.	2d/	tol-	2r	.	2r	.	1.a	pec-
!	!	!	!	!	!	!LO:TX:t=P:problem:kreska pseudotaktowa	!	!	!	!	!
2E/	.	.	.	2e\	-lis	2c/	qui	2c/	qui	.	.
1D	.	2r	.	1f	pec-	1d	tol-	2A/	tol-	.	.
!	!	!LO:TX:t=P:problem:kreska pseudotaktowa	!	!	!	!	!	!LO:TX:t=P:problem:kreska pseudotaktowa	!	!	!
.	.	2d\	qui	.	.	.	.	2B-/	-lis	4g\	-ca-
!	!	!	!	!	!	!	!	!	!	!LO:TX:t=P:problem:kreska pseudotaktowa	!
.	.	.	.	.	.	.	.	.	.	4f\	.
=72-	=72-	=72-	=72-	=72-	=72-	=72-	=72-	=72-	=72-	=72-	=72-
!LO:TX:t=P:problem:kreska pseudotaktowa	!	!	!	!	!	!	!	!	!	!	!
1C	.	2.e\	tol-	2e\	-ca-	1G	-lis	1.c	pec-	2g\	-ta
!	!	!	!	!LO:TX:t=P:problem:kreska pseudotaktowa	!	!	!	!	!	!LO:TX:t=P:problem:kreska pseudotaktowa	!
.	.	.	.	2c/	-ta	.	.	.	.	2g\	mun-
.	.	4f\	.	.	.	.	.	.	.	.	.
*	*	*	*	*	*	*	*	*	*	*lig	*
2r	.	1.g	-lis	1e	mun-	2G/	pec-	.	.	1c	-di,-
!	!	!	!	!	!	!LO:TX:t=P:problem:kreska pseudotaktowa:między nutą a kropką	!	!	!	!	!
2C/	qui	.	.	.	.	2.G/	-ca-	4B-/	.	.	.
!	!	!	!	!	!	!	!	!LO:TX:t=P:problem:kreska pseudotaktowa	!	!	!
.	.	.	.	.	.	.	.	4A/	.	.	.
=73-	=73-	=73-	=73-	=73-	=73-	=73-	=73-	=73-	=73-	=73-	=73-
!	!	!	!	!LO:SIC:v:t=custos c	!	!	!	!	!	!	!
!	!	!	!	!LO:TX:t=P:problem:kreska pseudotaktowa	!	!	!	!	!	!LO:TX:t=P:problem:kreska pseudotaktowa	!
2G\	tol-	.	.	1d	.	.	.	1B-	-ca-	1d	.
.	.	.	.	.	.	4A/	.	.	.	.	.
!LO:SIC:v:t=custos C	!	!	!	!	!	!	!	!	!	!	!
!LO:TX:t=P:problem:kreska pseudotaktowa	!	!LO:TX:t=P:problem:kreska pseudotaktowa	!	!	!	!LO:TX:t=P:problem:kreska pseudotaktowa	!	!	!	!	!
2G\	-lis	2g\	pec-	.	.	2B-/	.	.	.	.	.
*	*	*	*	*	*	*	*	*	*	*Xlig	*
!	!	!	!	!LO:LB:g=original	!	!	!	!	!	!	!
!LO:LB:g=original	!	!	!	!LO:TX:t=P:problem:kreska pseudotaktowa	!	!	!	!LO:TX:t=P:problem:kreska pseudotaktowa	!	!	!
2.C/	pec-	1g	-ca-	0c	-di,	2G/	-ta	1c	-ta	2.e/	.
.	.	.	.	.	.	2.c/	mun-	.	.	.	.
!LO:TX:t=P:problem:kreska pseudotaktowa	!	!	!	!	!	!	!	!	!	!	!
4D/	-ca-	.	.	.	.	.	.	.	.	4f/	.
=74-	=74-	=74-	=74-	=74-	=74-	=74-	=74-	=74-	=74-	=74-	=74-
!	!	!LO:SIC:v:t=custos f	!	!	!	!	!	!	!	!	!
2E/	-ta	2g\	-ta-	.	.	.	.	2r	.	2g\	.
.	.	.	.	.	.	4B-/	.	.	.	.	.
!	!	!	!	!	!	!	!	!	!	!LO:SIC:v:t=custos f	!
!	!	!LO:LB:g=original	!	!	!	!	!	!	!	!LO:TX:t=P:problem:kreska pseudotaktowa	!
1F	.	1f	.	.	.	4A/	.	2c/	m(un)-	2a\	.
!	!	!	!	!	!	!LO:SIC:v:t=custos A	!	!	!	!	!
.	.	.	.	.	.	4G/	.	.	.	.	.
!	!	!	!	!	!	!LO:LB:g=original	!	!LO:SIC:v:t=custos e	!	!LO:PB:g=original	!
.	.	.	.	0r	.	2A/	-di,	2d/	-di	2f\	.
*	*	*	*	*	*	*	*	*	*ij	*	*
!	!	!	!	!	!	!	!	!LO:LB:g=original	!	!	!
!LO:TX:t=P:problem:kreska pseudotaktowa	!	!LO:TX:t=P:problem:kreska pseudotaktowa	!	!	!	!LO:TX:t=P:problem:kreska pseudotaktowa	!	!LO:TX:t=P:problem:kreska pseudotaktowa	!	!	!
2C/	mun-	2e\	-mun-	.	.	2G/	.	2e\	qui	2.g\	.
=75-	=75-	=75-	=75-	=75-	=75-	=75-	=75-	=75-	=75-	=75-	=75-
2D/	-di;	1d	.	.	.	2B-/	.	1f	tol-	.	.
.	.	.	.	.	.	.	.	.	.	4f\	.
2F/	.	.	.	.	.	2A/	.	.	.	1f	-mun-
!LO:TX:t=P:problem:kreska pseudotaktowa	!	!	!	!	!	!	!	!	!	!	!
1C	.	1c	.	2r	.	1G	.	1g	-lis	.	.
*	*	*	*	*	*ij	*	*	*	*	*	*
!	!	!	!	!LO:TX:t=P:problem:kreska pseudotaktowa	!	!	!	!	!	!LO:TX:t=P:problem:kreska pseudotaktowa	!
.	.	.	.	2c/	qui	.	.	.	.	2e/	-di;-
=76-	=76-	=76-	=76-	=76-	=76-	=76-	=76-	=76-	=76-	=76-	=76-
!	!	!LO:TX:t=P:problem:kreska pseudotaktowa	!	!	!	!LO:TX:t=P:problem:kreska pseudotaktowa	!	!	!	!	!
2r	.	1A	-di;	2c/	tol-	0F	.	1.a	pec-	0f	.
2c\	qui	.	.	2F/	-lis	.	.	.	.	.	.
2c\	tol-	1r	.	2.A/	pec-	.	.	.	.	.	.
!LO:TX:t=P:problem:kreska pseudotaktowa	!	!	!	!	!	!	!	!	!	!	!
2c\	-lis	.	.	.	.	.	.	4g\	.	.	.
!	!	!	!	!LO:TX:t=P:problem:kreska pseudotaktowa	!	!	!	!LO:TX:t=P:problem:kreska pseudotaktowa	!	!	!
.	.	.	.	4B-/	.	.	.	4f\	.	.	.
=77-	=77-	=77-	=77-	=77-	=77-	=77-	=77-	=77-	=77-	=77-	=77-
2A\	pec-	2r	.	2c/	-ca-	0r	.	2e\	-ca-	1r	.
*	*	*	*ij	*	*	*	*	*	*	*	*
!	!	!LO:TX:t=P:problem:kreska pseudotaktowa	!	!	!	!	!	!	!	!	!
2F/	-ca-	2a\	qui	2.d\	.	.	.	2.f\	-ta	.	.
2A\	-ta	2a\	tol-	.	.	.	.	.	.	2r	.
.	.	.	.	4c/	.	.	.	4e\	.	.	.
!	!	!	!	!	!	!	!	!	!	!LO:TX:t=P:problem:kreska pseudotaktowa	!
2A\	m(un)-	2f\	-lis	1c\	.	.	.	4d\	.	2a\	-qui
!	!	!	!	!	!	!	!	!LO:TX:t=P:problem:kreska pseudotaktowa	!	!	!
.	.	.	.	.	.	.	.	4c\	.	.	.
=78-	=78-	=78-	=78-	=78-	=78-	=78-	=78-	=78-	=78-	=78-	=78-
!LO:TX:t=P:problem:kreska pseudotaktowa	!	!	!	!	!	!	!	!	!	!	!
1G	-di;	1g	pec-	.	.	2r	.	1d	mun-	1b-	tol-
!	!	!	!	!LO:TX:t=P:problem:kreska pseudotaktowa	!	!LO:TX:t=P:problem:kreska pseudotaktowa	!	!	!	!	!
.	.	.	.	2B-/	.	2G/	pec-	.	.	.	.
!	!	!	!	!	!	!	!	!LO:TX:t=P:problem:kreska pseudotaktowa	!	!	!
2r	.	2e\	-ca-	2.c/	.	1A	-ca-	0c	-di	1.a	-lis
*	*	*	*	*	*	*	*	*	*Xij	*	*
!LO:TX:t=P:problem:kreska pseudotaktowa	!	!LO:TX:t=P:problem:kreska pseudotaktowa:między nutą a kropką	!	!	!	!	!	!	!	!	!
2F/	qui	2.f\	.	.	.	.	.	.	.	.	.
.	.	.	.	4B-/	.	.	.	.	.	.	.
=79-	=79-	=79-	=79-	=79-	=79-	=79-	=79-	=79-	=79-	=79-	=79-
2F/	tol-	.	.	2A/	.	2.A/	-ta	.	.	.	.
.	.	4e\	.	.	.	.	.	.	.	.	.
!	!	!	!	!LO:TX:t=P:problem:kreska pseudotaktowa	!	!	!	!	!	!LO:TX:t=P:problem:kreska pseudotaktowa	!
2F/	-lis	4c/	.	2F/	-ta	.	.	.	.	2a\	pec-
!	!	!	!	!	!	!LO:TX:t=P:problem:kreska pseudotaktowa	!	!	!	!	!
.	.	4d/	.	.	.	4B-/	.	.	.	.	.
!LO:SIC:v:t=custos D	!	!	!	!	!	!	!	!	!	!	!
2E/	pec-	2e\	-ta	2G/	mun-	2c/	.	0r	.	2g\	-ca-
!LO:LB:g=original	!	!	!	!	!	!	!	!	!	!	!
!LO:TX:t=P:problem:kreska pseudotaktowa	!	!LO:TX:t=P:problem:kreska pseudotaktowa:między nutą a kropką	!	!	!	!	!	!	!	!	!
2D/	-ca-	2.f\	mun-	1A/	.	2d\	.	.	.	2f\	-ta
=80-	=80-	=80-	=80-	=80-	=80-	=80-	=80-	=80-	=80-	=80-	=80-
1F	-ta	.	.	.	.	2c/	.	.	.	1a	mun-
.	.	4e\	.	.	.	.	.	.	.	.	.
!	!	!	!	!LO:TX:t=P:problem:kreska pseudotaktowa	!	!	!	!	!	!	!
.	.	2d\	.	2F/	.	2.f\	mun-	.	.	.	.
!	!	!LO:TX:t=P:problem:kreska pseudotaktowa	!	!	!	!	!	!	!	!	!
1C	m(un)-	1c	-di	1G	.	.	.	2r	.	1g	.
*	*	*	*Xij	*	*	*	*	*	*	*	*
.	.	.	.	.	.	8e\L	.	.	.	.	.
.	.	.	.	.	.	8d\J	.	.	.	.	.
.	.	.	.	.	.	2e\	-di;	1c\	do-	.	.
=81-	=81-	=81-	=81-	=81-	=81-	=81-	=81-	=81-	=81-	=81-	=81-
!LO:TX:t=P:problem:kreska pseudotaktowa	!	!	!	!	!	!LO:TX:t=P:problem:kreska pseudotaktowa	!	!	!	!LO:TX:t=P:problem:kreska pseudotaktowa	!
1F	-di;	2r	.	2A/	-di	1f	.	.	.	0f	-di,
!	!	!LO:SIC:v:t=custos d	!	!	!	!	!	!	!	!	!
!	!	!LO:TX:t=P:problem:kreska pseudotaktowa	!	!LO:TX:t=P:problem:kreska pseudotaktowa	!	!	!	!LO:TX:t=P:problem:kreska pseudotaktowa	!	!	!
.	.	2c/	do-	2f\	qui	.	.	2A/	-na	.	.
!	!	!LO:LB:g=original	!	!LO:SIC:v:t=custos f	!	!	!	!	!	!	!
1r	.	2d\	-na	2f\	tol-	1r	.	2B-/	no-	.	.
!	!	!	!	!LO:LB:g=original	!	!	!	!	!	!	!
.	.	1f\	no-	2f\	-lis	.	.	2d\	-bis	.	.
=82-	=82-	=82-	=82-	=82-	=82-	=82-	=82-	=82-	=82-	=82-	=82-
!	!	!	!	!LO:TX:t=P:problem:kreska pseudotaktowa	!	!LO:TX:t=P:problem:kreska pseudotaktowa	!	!	!	!	!
2r	.	.	.	1g	pec-	0r	.	1c	pa-	1r	.
!LO:TX:t=P:problem:kreska pseudotaktowa	!	!LO:TX:t=P:problem:kreska pseudotaktowa	!	!	!	!	!	!	!	!	!
2C/	do-	2e\	-bis	.	.	.	.	.	.	.	.
!	!	!	!	!	!	!	!	!LO:TX:t=P:problem:kreska pseudotaktowa	!	!	!
2D/	-na	2f\	pa-	2.f\	-ca-	.	.	1A	-ce(m);	2r	.
!	!	!	!	!	!	!	!	!	!	!LO:TX:t=P:problem:kreska pseudotaktowa	!
1F\	no-	2a\	.	.	.	.	.	.	.	2f/	do-
.	.	.	.	4e\	.	.	.	.	.	.	.
=83-	=83-	=83-	=83-	=83-	=83-	=83-	=83-	=83-	=83-	=83-	=83-
!	!	!LO:TX:t=P:problem:kreska pseudotaktowa	!	!	!	!	!	!	!	!	!
.	.	1g	-cem;	2c/	.	2r	.	1r	.	1g	-na
!LO:TX:t=P:problem:kreska pseudotaktowa	!	!	!	!LO:TX:t=P:problem:kreska pseudotaktowa	!	!	!	!	!	!	!
2E/	-bis	.	.	2e\	-ta	2c/	do-	.	.	.	.
!	!	!	!	!	!	!	!	!	!	!LO:SIC:v:t=custos b	!
!	!	!	!	!	!	!	!	!	!	!LO:TX:t=P:problem:kreska pseudotaktowa	!
2F/	.	1r	.	2d\	mun-	2A/	-na	2r	.	1a	no-
*	*	*	*	*	*	*	*	*	*ij	*	*
!	!	!	!	!	!	!	!	!LO:TX:t=P:problem:kreska pseudotaktowa	!	!	!
2A\	pa-	.	.	2.c/	.	2F/	no-	2f\	do-	.	.
!	!	!	!	!	!	!	!	!	!	!LO:LB:g=original	!
=84-	=84-	=84-	=84-	=84-	=84-	=84-	=84-	=84-	=84-	=84-	=84-
!	!	!	!	!	!	!LO:SIC:v:t=custos c	!	!	!	!	!
!LO:TX:t=P:problem:kreska pseudotaktowa	!	!	!	!	!	!LO:TX:t=P:problem:kreska pseudotaktowa	!	!	!	!	!
1G	-cem;	2r	.	.	.	1G	-bis	2d\	.	1b-	-bis
.	.	.	.	8B-/L	.	.	.	.	.	.	.
.	.	.	.	8A/J	.	.	.	.	.	.	.
!	!	!	!	!	!	!	!	!LO:SIC:v:t=custos e	!	!	!
.	.	2g\	.	2B-/	.	.	.	2d\	-na	.	.
!	!	!	!	!LO:TX:t=P:problem:kreska pseudotaktowa	!	!LO:LB:g=original	!	!LO:LB:g=original	!	!	!
2r	.	2g\	.	1c	-di	2.c/	pa-	2e\	no-	2g\	.
*	*ij	*	*	*	*Xij	*	*	*	*	*	*
!	!	!LO:TX:t=P:problem:kreska pseudotaktowa	!	!	!	!	!	!	!	!	!
1F\	do-	2c/	.	.	.	.	.	1f\	.	1a\	.
.	.	.	.	.	.	4B-/	.	.	.	.	.
=85-	=85-	=85-	=85-	=85-	=85-	=85-	=85-	=85-	=85-	=85-	=85-
.	.	2d/	.	2r	.	4A/	-cem;	.	.	.	.
.	.	.	.	.	.	4G/	.	.	.	.	.
!LO:TX:t=P:problem:kreska pseudotaktowa	!	!	!	!	!	!	!	!LO:TX:t=P:problem:kreska pseudotaktowa	!	!LO:TX:t=P:problem:kreska pseudotaktowa	!
2E/	.	2e\	.	2c/	qui	2.c/	.	2g\	  bis	2g\	.
!	!	!LO:TX:t=P:problem:kreska pseudotaktowa	!	!	!	!	!	!	!	!	!
1D	-na	1f	.	2d/	tol-	.	.	2.a\	pa -	1f	.
.	.	.	.	.	.	8B-/L	.	.	.	.	.
.	.	.	.	.	.	8A/J	.	.	.	.	.
!	!	!	!	!LO:TX:t=P:problem:kreska pseudotaktowa	!	!	!	!	!	!	!
.	.	.	.	2d/	-lis	2B-/	.	.	.	.	.
.	.	.	.	.	.	.	.	8g\L	.	.	.
.	.	.	.	.	.	.	.	8f\J	.	.	.
=86-	=86-	=86-	=86-	=86-	=86-	=86-	=86-	=86-	=86-	=86-	=86-
!	!	!	!	!	!	!LO:TX:t=P:problem:kreska pseudotaktowa	!	!	!	!	!
2.C/	no-	1r	.	2G/	pec-	1c	.	1g	.	2.e/	pa-
.	.	.	.	2.c/	-ca-	.	.	.	.	.	.
!LO:TX:t=P:problem:kreska pseudotaktowa	!	!	!	!	!	!	!	!	!	!LO:TX:t=P:problem:kreska pseudotaktowa	!
4D/	.	.	.	.	.	.	.	.	.	4f/	.
!	!	!	!	!	!	!	!	!LO:TX:t=P:problem:kreska pseudotaktowa	!	!	!
2E/	.	2r	.	.	.	2r	.	1c	-ce(m)	2g\	-cem,
*	*	*	*	*	*	*	*ij	*	*Xij	*	*
.	.	.	.	4B-/	.	.	.	.	.	.	.
2F/	-bis	1c\	do-	2A/	-ta	2F/	do-	.	.	1f\	.
=87-	=87-	=87-	=87-	=87-	=87-	=87-	=87-	=87-	=87-	=87-	=87-
1C	pa-	.	.	1G	m(un)-	2G/	-na	1r	.	.	.
!	!	!LO:TX:t=P:problem:kreska pseudotaktowa	!	!	!	!LO:TX:t=P:problem:kreska pseudotaktowa	!	!	!	!	!
.	.	2c/	-na	.	.	2G/	no-	.	.	2e/	.
!LO:TX:t=P:problem:kreska pseudotaktowa	!	!	!	!	!	!	!	!	!	!LO:TX:t=P:problem:kreska pseudotaktowa	!
1F	-cem	2c/	no-	1F	-di	1A	-bis	2r	.	1f	.
*	*Xij	*	*	*	*	*	*	*	*	*	*
!	!	!	!	!	!	!	!	!LO:TX:t=P:problem:kreska pseudotaktowa	!	!	!
.	.	2A/	-bis	.	.	.	.	2c/	do-	.	.
=88-	=88-	=88-	=88-	=88-	=88-	=88-	=88-	=88-	=88-	=88-	=88-
1r	.	1d	pa-	1r	.	1B-	pa-	1f	-na	2r	.
*	*	*	*	*	*	*	*	*	*	*	*ij
.	.	.	.	.	.	.	.	.	.	2f\	do-
!	!	!LO:TX:t=P:problem:kreska pseudotaktowa	!	!	!	!LO:TX:t=P:problem:kreska pseudotaktowa	!	!	!	!	!
0C	do-	0c	-ce(m),	2r	.	1G	-cem	2e\	no-	1.g	.
*	*	*	*	*	*	*	*Xij	*	*	*	*
!	!	!	!	!LO:TX:t=P:problem:kreska pseudotaktowa	!	!	!	!LO:TX:t=P:problem:kreska pseudotaktowa	!	!	!
.	.	.	.	2c/	do-	.	.	2e\	-bis	.	.
=89-	=89-	=89-	=89-	=89-	=89-	=89-	=89-	=89-	=89-	=89-	=89-
!	!	!	!	!LO:SIC:v:t=custos f	!	!	!	!	!	!	!
!	!	!	!	!LO:TX:t=P:problem:kreska pseudotaktowa	!	!	!	!	!	!	!
.	.	.	.	1e	-na	2r	.	1g	pa-	.	.
!	!	!	!	!	!	!	!	!	!	!LO:TX:t=P:problem:kreska pseudotaktowa	!
.	.	.	.	.	.	2G/	do-	.	.	2e/	.
!LO:SIC:v:t=custos D	!	!	!	!LO:LB:g=original	!	!LO:TX:t=P:problem:kreska pseudotaktowa	!	!LO:TX:t=P:problem:kreska pseudotaktowa	!	!	!
0F	-na	2r	.	1.f	d_no-	0A	-na	1c	-ce(m);	1a	-na
*	*	*	*ij	*	*	*	*	*	*	*	*
!	!	!LO:SIC:v:t=custos F	!	!	!	!	!	!	!	!	!
.	.	1c\	do-	.	.	.	.	.	.	.	.
=90-	=90-	=90-	=90-	=90-	=90-	=90-	=90-	=90-	=90-	=90-	=90-
.	.	.	.	.	.	.	.	2r	.	1.a	no-
*	*	*	*	*	*	*	*	*	*ij	*	*
!	!	!LO:LB:g=original	!	!	!	!	!	!	!	!	!
!	!	!LO:TX:t=P:problem:kreska pseudotaktowa	!	!	!	!	!	!	!	!	!
.	.	2F/	-na	2f\	-bis	.	.	2c/	do-	.	.
!LO:LB:g=original	!	!	!	!	!	!	!	!	!	!	!
1D	no-	2A/	no-	1f	pa-	1F	.	2d/	.	.	.
!	!	!	!	!	!	!	!	!LO:TX:t=P:problem:kreska pseudotaktowa	!	!	!
.	.	2B-/	-bis	.	.	.	.	2d/	-na	4g\	.
!	!	!	!	!	!	!	!	!	!	!LO:TX:t=P:problem:kreska pseudotaktowa	!
.	.	.	.	.	.	.	.	.	.	4f\	.
=91-	=91-	=91-	=91-	=91-	=91-	=91-	=91-	=91-	=91-	=91-	=91-
!	!	!	!	!	!	!	!	!	!	!LO:SIC:v:t=custos a	!
!	!	!	!	!LO:TX:t=P:problem:kreska pseudotaktowa	!	!	!	!	!	!LO:TX:t=P:problem:kreska pseudotaktowa	!
1C	-bis	1G	pa-	1e	-ce(m)	1.c	no-	1e	no-	1g	-bis
!	!	!LO:TX:t=P:problem:kreska pseudotaktowa	!	!	!	!	!	!	!	!LO:LB:g=original	!
0F	pa-	0F	-ce(m)	1r	.	.	.	1.f	.	0a	pa-
*	*	*	*Xij	*	*	*	*	*	*	*	*
!	!	!	!	!	!	!LO:TX:t=P:problem:kreska pseudotaktowa	!	!	!	!	!
.	.	.	.	.	.	2B-/	-bis	.	.	.	.
=92-	=92-	=92-	=92-	=92-	=92-	=92-	=92-	=92-	=92-	=92-	=92-
.	.	.	.	2r	.	2A/	pa-	.	.	.	.
*	*	*	*	*	*ij	*	*	*	*	*	*
!	!	!	!	!	!	!	!	!LO:SIC:v:t=custos e	!	!	!
!	!	!	!	!	!	!	!	!LO:TX:t=P:problem:kreska pseudotaktowa	!	!	!
.	.	.	.	1f	do-	2F/	.	2d\	-bis	.	.
!	!	!	!	!	!	!LO:SIC:v:t=custos F	!	!	!	!	!
!LO:TX:t=P:problem:kreska pseudotaktowa	!	!	!	!	!	!LO:TX:t=P:problem:kreska pseudotaktowa	!	!LO:LB:g=original	!	!LO:TX:t=P:problem:kreska pseudotaktowa	!
1C	-ce(m);	2r	.	.	.	1G	-cem	1e	pa-	1g	-cem
*	*	*	*	*	*	*	*	*	*	*	*Xij
!	!	!	!	!LO:TX:t=P:problem:kreska pseudotaktowa	!	!	!	!	!	!	!
.	.	2c/	do-	2e\	-na	.	.	.	.	.	.
!	!	!	!	!	!	!LO:LB:g=original	!	!	!	!	!
=93-	=93-	=93-	=93-	=93-	=93-	=93-	=93-	=93-	=93-	=93-	=93-
!	!	!	!	!	!	!LO:TX:t=P:problem:kreska pseudotaktowa	!	!LO:TX:t=P:problem:kreska pseudotaktowa	!	!	!
2r	.	2c/	-na-	2.f\	no-	1F	.	1c	-ce(m)	2r	.
!	!	!LO:TX:t=P:problem:kreska pseudotaktowa	!	!	!	!	!	!	!	!	!
2c\	do-	2A/	-no-	.	.	.	.	.	.	2a\	do-
.	.	.	.	4e\	-bis	.	.	.	.	.	.
!	!	!LO:TX:t=P:problem:kreska pseudotaktowa	!	!	!	!	!	!	!	!	!
2B-\	-na	1d	-bis	2f\	pa-	1r	.	1r	.	1b-	-na
2G\	no-	.	.	2g\	.	.	.	.	.	.	.
=94-	=94-	=94-	=94-	=94-	=94-	=94-	=94-	=94-	=94-	=94-	=94-
*	*	*	*	*	*	*	*ij	*	*	*	*
!LO:TX:t=P:problem:kreska pseudotaktowa	!	!	!	!LO:TX:t=P:problem:kreska pseudotaktowa	!	!	!	!	!	!LO:TX:t=P:problem:kreska pseudotaktowa	!
1A	-bis	1r	.	1c	-cem	1F	do-	1f	no-	1a	no-
*	*	*	*	*	*Xij	*	*	*	*	*	*
!	!	!	!	!	!	!LO:TX:t=P:problem:kreska pseudotaktowa	!	!	!	!	!
2r	.	2r	.	0r	.	1c	-na	2e\	.	2g\	-bis
!	!	!	!	!	!	!	!	!LO:TX:t=P:problem:kreska pseudotaktowa	!	!	!
1F\	do-	1A/	do-	.	.	.	.	2c/	-bis	1a\	pa-
=95-	=95-	=95-	=95-	=95-	=95-	=95-	=95-	=95-	=95-	=95-	=95-
.	.	.	.	.	.	2c/	no-	1f	pa-	.	.
!LO:TX:t=P:problem:kreska pseudotaktowa	!	!LO:TX:t=P:problem:kreska pseudotaktowa	!	!	!	!	!	!	!	!	!
2D/	-na	2B-/	-na	.	.	2.d\	.	.	.	4g\	-cem;
!	!	!	!	!	!	!	!	!	!	!LO:TX:t=P:problem:kreska pseudotaktowa	!
.	.	.	.	.	.	.	.	.	.	4f\	.
2E/	no-	2G/	no-	2r	.	.	.	2e\	.	2g\	.
.	.	.	.	.	.	4c\	-bis	.	.	.	.
2F/	-bis	2F/	-bis	1f\	do-	2.c/	pa-	2c/	.	2.a\	pa-
=96-	=96-	=96-	=96-	=96-	=96-	=96-	=96-	=96-	=96-	=96-	=96-
!	!	!	!	!	!	!	!	!LO:TX:t=P:problem:kreska pseudotaktowa	!	!	!
1D	pa-	2A/	pa-	.	.	.	.	1d	-cem	.	.
*	*	*	*	*	*	*	*	*	*Xij	*	*
.	.	.	.	.	.	8B-/L	.	.	.	4g\	.
.	.	.	.	.	.	8A/J	.	.	.	.	.
!	!	!LO:TX:t=P:problem:kreska pseudotaktowa	!	!LO:TX:t=P:problem:kreska pseudotaktowa	!	!	!	!	!	!	!
.	.	2B-/	.	2f\	-na	2B-/	.	.	.	2.f\	-cem;
!LO:TX:t=P:problem:kreska pseudotaktowa	!	!	!	!	!	!LO:TX:t=P:problem:kreska pseudotaktowa	!	!	!	!	!
1C	-ce(m);	1G	-cem,	1g	.	0c	-cem	1r	.	.	.
*	*	*	*	*	*	*	*Xij	*	*	*	*
.	.	.	.	.	.	.	.	.	.	8e/L	.
.	.	.	.	.	.	.	.	.	.	8d/J	.
!	!	!	!	!	!	!	!	!	!	!LO:TX:t=P:problem:kreska pseudotaktowa	!
.	.	.	.	.	.	.	.	.	.	2e/	.
=97-	=97-	=97-	=97-	=97-	=97-	=97-	=97-	=97-	=97-	=97-	=97-
2r	.	[0Fl;	.	1a	no-	.	.	2r	.	1.f	.
1F	do-	.	.	.	.	.	.	1c	do-	.	.
.	.	.	.	1.f	-bis-	1r	.	.	.	.	.
!	!	!	!	!	!	!	!	!	!	!LO:SIC:v:t=custos a	!
!LO:TX:t=P:problem:kreska pseudotaktowa	!	!	!	!	!	!	!	!LO:TX:t=P:problem:kreska pseudotaktowa	!	!LO:TX:t=P:problem:kreska pseudotaktowa	!
2E/	-na	.	.	.	.	.	.	2c/	-na	2g\	.
!	!	!	!	!	!	!	!	!	!	!LO:LB:g=original	!
=98-	=98-	=98-	=98-	=98-	=98-	=98-	=98-	=98-	=98-	=98-	=98-
2D/	no-	0F_	.	.	.	1.F	do-	2d\	no-	1a	.
!	!	!	!	!LO:TX:t=P:problem:kreska pseudotaktowa	!	!	!	!LO:TX:t=P:problem:kreska pseudotaktowa	!	!	!
2C/	-bis	.	.	2e\	.	.	.	2e\	.	.	.
!	!	!	!	!	!	!	!	!	!	!LO:TX:t=P:problem:kreska pseudotaktowa	!
0BB-	pa-	.	.	2d/	-pa-	.	.	1f	-biS	1b-	.
!	!	!	!	!	!	!LO:TX:t=P:problem:kreska pseudotaktowa	!	!	!	!	!
.	.	.	.	2c/	.	2F/	-na	.	.	.	.
=99-	=99-	=99-	=99-	=99-	=99-	=99-	=99-	=99-	=99-	=99-	=99-
.	.	0F_	.	1B-	-cem	1B-	no-	2.d\	pa-	2.f\	pa-
.	.	.	.	.	.	.	.	4e\	.	4g\	.
!	!	!	!	!	!	!LO:TX:t=P:problem:kreska pseudotaktowa	!	!	!	!	!
[1Fl;;	-cem	.	.	[1Al;	.	1c	-bis	[1fl;<	-cem	[1al;	-cem
=100-	=100-	=100-	=100-	=100-	=100-	=100-	=100-	=100-	=100-	=100-	=100-
0F_	.	0F_	.	0A_	.	1.d	pa-	0f_	.	0a_	.
.	.	.	.	.	.	2c/	.	.	.	.	.
=101-	=101-	=101-	=101-	=101-	=101-	=101-	=101-	=101-	=101-	=101-	=101-
0F]	.	0F]	.	0A]	.	0cl;;	-cem	0f]	.	0a]	.
==	==	==	==	==	==	==	==	==	==	==	==
*-	*-	*-	*-	*-	*-	*-	*-	*-	*-	*-	*-
!!!system-decoration: [(*)]
!!!RDF**kern: < = below
!!!RDF**kern: l = terminal long
!!!ENC: Mateusz Solarz
!!!END: 2022-01-18
!!!ENC: Andrzej Kubiczek
!!!END: 2022-01-25
